X: 1095
T: Hüseynî Aranağme (Aksak)
C: ?
O: Turkey
F: http://compmusic.upf.edu/node/140
N: huseyni--aranagme--aksak--1--
N: makam= huseyni
N: form= aranagme
N: usul= aksak = 9/8
M: 9/8
L: 1/16
K: C _2/4B ^3/4f  
Q: 1/4=168
%%MIDI tuningsystem comma53
A4 g4 =f4 e4 d2 | e2 d2e2 c2d4c2 _1/4B2A2  | \
w:  ARANAĞME  |   | 
A4 g4 =f4 e4 d2 | e2 d2c2 d2e8z2  | 
w:   |   | 
d4 e2^f2 g2f2 g4 f2 | g2 ^f2g2 a2g2 =f2e4d2  | \
w:   |   | 
d4 e2d2 c2_1/4B2 d4 c2 | 
w:   | 
c16z2  | z4 _1/4B2c2 d4 d4 z2 | c2 _1/4B2c2 d2c2 B2A4z2  | \
w:   |   |   | 
G4 c4 _1/4B4 A4 G2 | 
w:   | 
A8_1/4B2 c2d6  | z4 _1/4B2c2 d4 d4 z2 | \
w:   |   | 
c2 _1/4B2c2 d2c2 B2A4z2  | G4 c4 _1/4B4 A4 G2 | 
w:   |   | 
A4A4A4A4z2  | |


